iconfont/fedora.svg

<svg xmlns="http://www.w3.org/2000/svg" width="24" height="24"><path d="M12 2A10 10 0 0 0 2 12v7.73C2 21 3 22 4.27 22H12c5.53 0 10-4.5 10-10A10 10 0 0 0 12 2m2.94 2.37c.39 0 .67.05 1.03.13.53.15.97.58.97 1.09 0 .61-.44 1.06-1.11 1.06-.33 0-.43-.06-.89-.06-1.37 0-2.48 1.1-2.48 2.47v2.15c0 .2.16.35.35.35h1.63a1.09 1.09 0 0 1 1.09 1.09c0 .62-.49 1.1-1.11 1.1h-1.96v2.48c0 2.6-2.1 4.7-4.69 4.7-.4 0-.68-.05-1.04-.14-.53-.14-.97-.58-.97-1.08 0-.61.45-1.06 1.11-1.06.32 0 .43.06.9.06 1.36 0 2.47-1.1 2.47-2.47v-2.15c0-.2-.15-.35-.35-.35H8.27a1.095 1.095 0 1 1 .01-2.19h1.96V9.06c0-2.59 2.1-4.69 4.7-4.69z"/></svg>

<?xml version="1.0" encoding="UTF-8"?><!DOCTYPE svg PUBLIC "-//W3C//DTD SVG 1.1//EN" "http://www.w3.org/Graphics/SVG/1.1/DTD/svg11.dtd"><svg xmlns="http://www.w3.org/2000/svg" xmlns:xlink="http://www.w3.org/1999/xlink" version="1.1" width="24" height="24" viewBox="0 0 24 24"><path d="M12,2A10,10 0 0,0 2,12V19.73C2,21 3,22 4.27,22H12C17.53,22 22,17.5 22,12A10,10 0 0,0 12,2M14.94,4.37C15.33,4.37 15.61,4.42 15.97,4.5C16.5,4.65 16.94,5.08 16.94,5.59C16.94,6.2 16.5,6.65 15.83,6.65C15.5,6.65 15.4,6.59 14.94,6.59C13.57,6.59 12.46,7.69 12.46,9.06V11.21C12.46,11.41 12.62,11.56 12.81,11.56H14.44A1.09,1.09 0 0,1 15.53,12.65C15.53,13.27 15.04,13.75 14.42,13.75H12.46V16.23C12.46,18.83 10.36,20.93 7.77,20.93C7.37,20.93 7.09,20.88 6.73,20.79C6.2,20.65 5.76,20.21 5.76,19.71C5.76,19.1 6.21,18.65 6.87,18.65C7.19,18.65 7.3,18.71 7.77,18.71C9.13,18.71 10.24,17.61 10.24,16.24V14.09C10.24,13.89 10.09,13.74 9.89,13.74H8.27C7.66,13.74 7.17,13.25 7.17,12.65C7.17,12.03 7.66,11.55 8.28,11.55H10.24V9.06C10.24,6.47 12.34,4.37 14.94,4.37V4.37Z" /></svg>
